X:1
T:Title
%%score ( 1 2 ) ( 3 4 )
L:1/8
Q:1/4=90
M:4/4
K:Db
V:1 treble nm="Strings 1, Soprano"
V:2 treble 
V:3 bass nm="Strings 1, Bass"
V:4 bass 
V:1
 [Fd]4 [FA]2 [GB]2 | [FA]3 [DF] D4 | [DA]4 [CG]2 [CG]2 | [DF]6 z2 | [Fd]4 [DF]2 [DG]2 | %5
 [DF]3 [CE] D4 | [Ec]4 [Ed]2 [D=G]2 | A6[Q:1/4=90] z2[Q:1/4=12] | [DF]4 [EF]2 [DF]2 | %9
 [Ed]3 [Ec] [Ec]4 | [DB]4 [GB]2 [GB]2 | [FA]3 [EG] [DF]4 | [Ge]4 [Gc]2 [Ac]2 | [Ad]3 [DF] [DA]4 | %14
 DE [DF]4 [CE]2 | D2 B,2 A,4 |] %16
V:2
 x8 | x8 | x8 | x8 | x8 | x8 | x8 | CDEF G2 z2 | x8 | x8 | x8 | x8 | x8 | x8 | x8 | x8 |] %16
V:3
 [D,A,]4 [D,D]2 [D,D]2 | [D,D]3 [D,A,] [D,F,]4 | [F,A,]4 [E,A,]2 [A,,A,]2 | [D,A,]6 z2 | %4
w: 1.~Keep~ me~ in~|touch~ with~ Thee,~|My~ bless ed~|Lord;~|
 [D,A,]4 [D,A,]2 [D,B,]2 | [D,A,]3 [E,A,] [F,A,]4 | [E,A,]4 [E,=G,]2 [E,B,]2 | %7
w: Thine~ shall~ the~|glo ry~ be,~|Mine~ the~ re|
 A,B,[K:treble]CD E2 z2 | [D,A,]4 [C,=A,]2 [B,,B,]2 | [F,=A,]3 [F,A,] [F,A,]4 | G,4 [G,D]2 [G,D]2 | %11
w: ward~ (the~ great~ re ward);~|Cov er~ my~|soul~ with~ grace,~|In~ that~ most~|
 [D,D]3 [D,A,] [D,A,]4 | [A,,C]4 [A,E]2 [G,E]2 | [F,D]3 [D,A,] [D,F,]4 | %14
w: ho ly~ place,~|Till~ I~ shall~|see~ Thy~ face,~|
 [B,,F,][=A,,=G,] [_A,,A,]4 [A,,_G,]2 | F,2 G,2 F,4 |] %16
w: Keep~ * me,~ my~|Lord.~ * *|
V:4
 x8 | x8 | x8 | x8 | x8 | x8 | x8 | A,,6[K:treble] z2 | x8 | x8 | x8 | x8 | x8 | x8 | x8 | D,8 |] %16

